X:1
T: Miss Milligan
C:
R:Strathspey
Q: 128
K:G
M:4/4
L:1/16
|:D2|G3B d3g dG3 B4|EA3 A3G F3A FD3|G3B d3g dG3 B4|D3F A3c BG3 G2D2|
G3B d3g dG3 B4|EA3 A3G F3A FD3|G3B d3g dG3 B4|D3F A3c BG3 G2B2|
d3B g3d e3g dB3|c3A a3g f3a fd3|d3B g3d e3g dB3|D3F A3c BG3 G2B2|
d3B g3f e3d c3B|EA3 A3G F3A d3c|((3B2d2g2) ((3d2B2G2) ((3E2A2c2) ((3A2E2C2) |D3F A3c BG3 G2:|
